images/reference/coil.svg

<?xml version="1.0" encoding="UTF-8" standalone="no"?>
<svg
   width="20.821301"
   height="23.963947"
   viewBox="0 0 20.821301 23.963947"
   fill="none"
   version="1.1"
   id="svg6"
   xmlns="http://www.w3.org/2000/svg"
   xmlns:svg="http://www.w3.org/2000/svg">
  <defs
     id="defs6" />
  <path
     d="m 20.8213,19.550148 c 0,2.1949 -5.154,4.4138 -8.7389,4.4138 -4.39362,0 -8.50959,-2.3389 -10.60982,-6.105 C 0.482812,16.107848 0,14.116848 0,12.125848 0,9.811048 0.663867,7.496218 1.96746,5.517218 3.00551,3.934018 4.97297,1.823078 8.43714,0.695649 9.3062,0.407794 10.8753,0 12.6376,0 c 4.9488,0 8.063,3.442268 8.063,6.452748 0,2.06296 -1.6899,5.0015 -5.83,5.0015 -1.895,0 -2.5348,-0.7916 -2.5348,-1.70317 0,-1.22338 1.1467,-2.65066 1.9796,-2.65066 0.35,0 0.5673,0.34783 1.2432,0.25187 0.6639,-0.09595 1.0139,-0.53972 1.0139,-1.09145 0,-1.04347 -1.2432,-2.43477 -3.8866,-2.43477 -0.8449,0 -1.8347,0.14393 -2.98138,0.49175 -2.35371,0.70765 -3.64523,2.3868 -4.33324,3.43027 -0.86906,1.31934 -1.30359,2.86656 -1.30359,4.38976 0,1.3074 0.3259,2.6147 0.96563,3.7661 1.38808,2.4708 4.11597,4.018 7.04908,4.018 4.0435,0 5.1781,-2.1589 5.9989,-2.5067 1.4485,-0.6357 2.74,1.1034 2.74,2.1349 z"
     fill="#000000"
     id="path5" />
</svg>

<svg width="96" height="24" viewBox="0 0 96 24" fill="none" xmlns="http://www.w3.org/2000/svg">
<path d="M46.6031 5.09782C48.0763 5.09782 49.2706 3.96478 49.2706 2.5671C49.2706 1.16942 48.0763 0.036377 46.6031 0.036377C45.1298 0.036377 43.9355 1.16942 43.9355 2.5671C43.9355 3.96478 45.1298 5.09782 46.6031 5.09782Z" fill="black"/>
<path d="M44.5757 8.58767V23.0044C44.5757 23.784 45.6258 23.9879 46.6759 23.9879C47.726 23.9879 48.7762 23.784 48.7762 23.0044V8.58767C48.7762 7.5442 47.726 7.40027 46.6759 7.40027C45.6379 7.40027 44.5757 7.5442 44.5757 8.58767Z" fill="black"/>
<path d="M53.3994 1.1874V23.0044C53.3994 23.784 54.4495 23.9879 55.4996 23.9879C56.5498 23.9879 57.5999 23.784 57.5999 23.0044V1.1874C57.5999 0.143927 56.5498 0 55.4996 0C54.4616 0 53.3994 0.143927 53.3994 1.1874Z" fill="black"/>
<path d="M23.2344 15.4243C23.2344 10.8906 26.8796 6.84863 32.1423 6.84863C37.3808 6.84863 41.1105 10.8186 41.1105 15.4003C41.1105 20.3298 36.9704 24 32.1905 24C26.8917 23.988 23.2344 19.946 23.2344 15.4243ZM32.1302 20.4977C34.9305 20.4977 37.0307 18.2069 37.0307 15.3883C37.0307 12.5697 34.9305 10.3389 32.1302 10.3389C29.3299 10.3389 27.2659 12.6057 27.2659 15.4243C27.2659 18.2429 29.3299 20.4977 32.1302 20.4977Z" fill="black"/>
<path d="M20.8213 19.5709C20.8213 21.7658 15.6673 23.9847 12.0824 23.9847C7.68878 23.9847 3.57281 21.6458 1.47258 17.8797C0.482812 16.1286 0 14.1376 0 12.1466C0 9.8318 0.663867 7.51697 1.96746 5.53797C3.00551 3.95477 4.97297 1.84383 8.43714 0.716401C9.3062 0.428546 10.8753 0.020752 12.6376 0.020752C17.5864 0.020752 20.7006 3.46302 20.7006 6.4735C20.7006 8.53646 19.0107 11.475 14.8706 11.475C12.9756 11.475 12.3358 10.6834 12.3358 9.77183C12.3358 8.54845 13.4825 7.12117 14.3154 7.12117C14.6654 7.12117 14.8827 7.469 15.5586 7.37304C16.2225 7.27709 16.5725 6.83332 16.5725 6.28159C16.5725 5.23812 15.3293 3.84682 12.6859 3.84682C11.841 3.84682 10.8512 3.99075 9.70452 4.33857C7.35081 5.04622 6.05929 6.72537 5.37128 7.76884C4.50222 9.08818 4.06769 10.6354 4.06769 12.1586C4.06769 13.466 4.39359 14.7733 5.03332 15.9247C6.4214 18.3955 9.14929 19.9427 12.0824 19.9427C16.1259 19.9427 17.2605 17.7838 18.0813 17.436C19.5298 16.8003 20.8213 18.5394 20.8213 19.5709Z" fill="black"/>
<rect x="64.5" y="5.5" width="31" height="15" rx="1.5" stroke="#A4A8B1"/>
<path d="M68.7305 16V10.3125H70.7227C71.4128 10.3125 71.9362 10.4453 72.293 10.7109C72.6497 10.974 72.8281 11.3607 72.8281 11.8711C72.8281 12.1497 72.7565 12.3958 72.6133 12.6094C72.4701 12.8203 72.2708 12.9753 72.0156 13.0742C72.3073 13.1471 72.5365 13.2943 72.7031 13.5156C72.8724 13.737 72.957 14.0078 72.957 14.3281C72.957 14.875 72.7826 15.2891 72.4336 15.5703C72.0846 15.8516 71.5872 15.9948 70.9414 16H68.7305ZM69.9023 13.5234V15.0586H70.9062C71.1823 15.0586 71.3971 14.9935 71.5508 14.8633C71.707 14.7305 71.7852 14.5482 71.7852 14.3164C71.7852 13.7956 71.5156 13.5312 70.9766 13.5234H69.9023ZM69.9023 12.6953H70.7695C71.3607 12.6849 71.6562 12.4492 71.6562 11.9883C71.6562 11.7305 71.5807 11.5456 71.4297 11.4336C71.2812 11.319 71.0456 11.2617 70.7227 11.2617H69.9023V12.6953ZM78.2617 13.5352H76.0117V15.0586H78.6523V16H74.8398V10.3125H78.6445V11.2617H76.0117V12.6172H78.2617V13.5352ZM84.6992 11.2617H82.957V16H81.7852V11.2617H80.0664V10.3125H84.6992V11.2617ZM89.1133 14.8281H87.0586L86.668 16H85.4219L87.5391 10.3125H88.625L90.7539 16H89.5078L89.1133 14.8281ZM87.375 13.8789H88.7969L88.082 11.75L87.375 13.8789Z" fill="#A4A8B1"/>
</svg>
